common/icons/svgs/eye.svg

<svg xmlns="http://www.w3.org/2000/svg" viewbox="0 0 24 24"><g class="icon__shape" fill-rule="nonzero" transform="translate(2 4)"><path d="M10 0C4.17 0 0 6 0 8s4 8 10 8 10-6 10-8-4.2-8-10-8zm0 14c-4.76 0-8-5-8-6s3.21-6 8-6 8 5.11 8 6c0 .89-3.24 6-8 6z"/><circle cx="9.97" cy="8" r="3"/></g></svg>

<svg xmlns="http://www.w3.org/2000/svg" width="24" height="24" viewBox="0 0 24 24">
  <g fill="none" fill-rule="evenodd" transform="translate(-24 -402)">
    <rect width="504" height="450" fill="#FFF"/>
    <g transform="translate(24 402)">
      <rect width="24" height="24"/>
      <g fill="#000" fill-rule="nonzero" transform="translate(2 4)">
        <path d="M10,0 C4.17,0 0,6 0,8 C0,10 4,16 10,16 C16,16 20,10 20,8 C20,6 15.8,0 10,0 Z M10,14 C5.24,14 2,9 2,8 C2,7 5.21,2 10,2 C14.79,2 18,7.11 18,8 C18,8.89 14.76,14 10,14 Z"/>
        <circle cx="9.97" cy="8" r="3"/>
      </g>
    </g>
  </g>
</svg>
